X:1
T:Title
%%score 1 { 2 | 3 }
L:1/8
Q:1/4=115
M:4/4
K:D
V:1 treble nm="Grand Piano, Unnamed-000"
V:2 bass nm="Choir Pad, Surrender"
V:3 bass 
V:1
 F3 F G2 F2 | E3 E F2 E2 | D3 D G2 F2 | E2 F2 D4 | F3 F G2 F2 | E3 E F2 E2 | D3 D G2 F2 | %7
w: By~Winfield~S.~Weeden,~~1896 * * *|||||||
 E2 F2 D4 | [Fd]3 [Ac] [GB]2 [FA]2 | [EG]6 z2 | [Ac]3 [GB] [FA]2 [EG]2 | [DF]6 z2 | %12
w: |||||
 [DF]3 [EG] [GB]2 [FA]2 | [Fd]3 [Ac] [Ac]2 [GB]2 | [FA]3 [EG] [DF]2 [CE]2 | D8 |] %16
w: ||||
V:2
 A,3 A, B,2 A,2 | G,3 G, A,2 G,2 | F,3 A, B,2 A,2 | G,2 A,2 F,4 | A,3 A, B,2 A,2 | G,3 A, B,2 A,2 | %6
 F,3 F, B,2 A,2 | G,2 A,2 F,4 | A,2 z2 A,2 z2 | CCCC C2 z2 | A,2 z2 A,2 z2 | A,A,A,A, A,2 z2 | %12
 A,3 A, D2 D2 | A,3 D D2 D2 | D3 B, A,2 G,2 | F,8 |] %16
V:3
 z4 D,4 | z4 A,,4 | z4 D,4 | z4 D,4 | z4 D,4 | z4 D,4 | z4 D,4 | A,,4 D,4 | D,2 z2 D,2 z2 | %9
 A,,A,,C,E, A,,2 z2 | A,,2 z2 A,,2 z2 | D,D, .F,2 D,2 z2 | D,3 D, D,2 D,2 | D,3 F, G,2 G,2 | %14
 A,3 A, A,,2 A,,2 | D,8 |] %16

